src/actions/16/dashed-stroke.svg

<svg width="16" height="16" version="1.1" viewBox="0 0 16 16" xmlns="http://www.w3.org/2000/svg">
 <path d="m2 1c-0.554 0-1 0.446-1 1v1h1v-1h1v-1h-1zm2 0v1h2v-1h-2zm3 0v1h2v-1h-2zm3 0v1h2v-1h-2zm3 0v1h1v1h1v-1c0-0.554-0.446-1-1-1h-1zm-12 3v2h1v-2h-1zm13 0v2h1v-2h-1zm-13 3v2h1v-2h-1zm13 0v2h1v-2h-1zm-13 3v2h1v-2h-1zm13 0v2h1v-2h-1zm-13 3v1c0 0.554 0.446 1 1 1h1v-1h-1v-1h-1zm13 0v1h-1v1h1c0.554 0 1-0.446 1-1v-1h-1zm-10 1v1h2v-1h-2zm3 0v1h2v-1h-2zm3 0v1h2v-1h-2z" fill="#363636"/>
</svg>

<svg xmlns="http://www.w3.org/2000/svg" width="16" height="16">
    <path fill="#050505" fill-opacity=".7" d="M2 1c-.554 0-1 .446-1 1v1h1V2h1V1H2zm2 0v1h2V1H4zm3 0v1h2V1H7zm3 0v1h2V1h-2zm3 0v1h1v1h1V2c0-.554-.446-1-1-1h-1zM1 4v2h1V4H1zm13 0v2h1V4h-1zM1 7v2h1V7H1zm13 0v2h1V7h-1zM1 10v2h1v-2H1zm13 0v2h1v-2h-1zM1 13v1c0 .554.446 1 1 1h1v-1H2v-1H1zm13 0v1h-1v1h1c.554 0 1-.446 1-1v-1h-1zM4 14v1h2v-1H4zm3 0v1h2v-1H7zm3 0v1h2v-1h-2z"/>
</svg>
